X:1
T:Miriam, 76.76 D
T:Miriam, 76.76 D
T:Joseph Perry Holbrook, 1865
T:Public Domain Courtesy of the Cyber Hymnal™
C:Joseph Perry Holbrook, 1865
Z:Public Domain
Z:Courtesy of the Cyber Hymnal™
%%score ( 1 2 ) ( 3 4 )
L:1/8
Q:1/4=165
M:6/4
K:C
V:1 treble 
V:2 treble 
V:3 bass 
V:4 bass 
V:1
 [EG]2 | [EG]4 [Ec]2 [Fd]4 [Gc]2 | [Ac]6 [GB]4 [FA]2 | [EG]4 [EG]2 [DA]4 [DF]2 | %4
 [CE]6- [CE]4 [EG]2 | [EG]4 [Ec]2 [Fd]4 [Gc]2 | [Ac]6 [GB]4 [FA]2 | [EG]4 [EG]2 [DA]4 [FB]2 | %8
 [Ec]6- [Ec]4 [CE]2 | [CE]4 [EA]2 [Ec]4 (BA) | [E^G]6 [EA]4 [EA]2 | [Ec]4 [EA]2 [Fc]4 [Ad]2 | %12
 [^Ge]6- [Ge]4 [E=G]2 | [EG]4 [Ec]2 [Fd]4 [Gc]2 | [Ac]6 [GB]4 [FA]2 | [EG]4 [EG]2 [DA]4 [FB]2 | %16
 [Ec]8- [Ec]2 |] %17
V:2
 x2 | x12 | x12 | x12 | x12 | x12 | x12 | x12 | x12 | x10 E2 | x12 | x12 | x12 | x12 | x12 | x12 | %16
 x10 |] %17
V:3
 [C,C]2 | [C,C]4 [C,G,]2 [C,A,]4 [E,C]2 | [F,C]6 [F,C]4 [F,C]2 | [G,C]4 [G,C]2 [G,,B,]4 [G,,B,]2 | %4
 [C,G,]6- [C,G,]4 [C,C]2 | [C,C]4 [C,G,]2 [C,A,]4 [E,C]2 | [F,C]6 [F,C]4 [F,C]2 | %7
 [G,C]4 [G,C]2 [G,,B,]4 [G,,D]2 | [C,C]6- [C,C]4 [C,C]2 | [A,,C]4 [A,,C]2 [A,E]4 (DC) | %10
 [E,B,]6 [A,,C]4 [A,,C]2 | [A,C]4 [A,C]2 [F,A,]4 [F,A,]2 | [E,B,]6- [E,B,]4 [C,C]2 | %13
 [C,C]4 [C,G,]2 [C,A,]4 [E,C]2 | [F,C]6 [F,C]4 [F,C]2 | [G,C]4 [G,C]2 [G,,B,]4 [G,,D]2 | %16
 [C,C]8- [C,C]2 |] %17
V:4
 x2 | x12 | x12 | x12 | x12 | x12 | x12 | x12 | x12 | x10 A,2 | x12 | x12 | x12 | x12 | x12 | x12 | %16
 x10 |] %17

